X: 1
T: Q Nights
M: 12/8
L: 1/8
R: slide
K: Cmaj
|: C2G GEG GAB c2C | C2G GEG GAG GAB |
c2C GEG GAB c2G |AcA G2E D3 D3 :|
|: A2d dcd edc d2A | GAB c2d edc dcA |
Ad2 dcd edc d2A | GAB cGE DED D3 :|
